;START_OF_HEADER
;HEADER_VERSION:0.1
;FLAVOR:Griffin
;GENERATOR.NAME:Cura_SteamEngine
;GENERATOR.VERSION:4.7.1
;GENERATOR.BUILD_DATE:2020-09-02
;TARGET_MACHINE.NAME:Ultimaker 3
;EXTRUDER_TRAIN.0.INITIAL_TEMPERATURE:245
;EXTRUDER_TRAIN.0.MATERIAL.VOLUME_USED:57576
;EXTRUDER_TRAIN.0.MATERIAL.GUID:5253a75a-27dc-4043-910f-753ae11bc417
;EXTRUDER_TRAIN.0.NOZZLE.DIAMETER:0.4
;EXTRUDER_TRAIN.0.NOZZLE.NAME:AA 0.4
;BUILD_PLATE.TYPE:glass
;BUILD_PLATE.INITIAL_TEMPERATURE:80
;PRINT.TIME:25271
;PRINT.GROUPS:1
;PRINT.SIZE.MIN.X:9
;PRINT.SIZE.MIN.Y:6
;PRINT.SIZE.MIN.Z:0.27
;PRINT.SIZE.MAX.X:210.411
;PRINT.SIZE.MAX.Y:201.419
;PRINT.SIZE.MAX.Z:9.87
;END_OF_HEADER
;Generated with Cura_SteamEngine 4.7.1
T0
M82 ;absolute extrusion mode

G92 E0
M109 S245
G0 F15000 X9 Y6 Z2
G280
G1 F1500 E-6.5
;LAYER_COUNT:49
;LAYER:0
M107
M204 S625
M205 X6 Y6
G1 F600 Z2.27
G0 F5000 X49.471 Y41.723 Z2.27
M204 S500
M205 X5 Y5
;TYPE:SKIRT
G1 F600 Z0.27
G1 F1500 E0
G1 F1200 X49.761 Y41.428 E0.00735
G1 X53.523 Y37.831 E0.09988
G1 X53.832 Y37.553 E0.10726
G1 X57.799 Y34.192 E0.19969
G1 X58.122 Y33.935 E0.20703
G1 X62.287 Y30.812 E0.29956
G1 X62.627 Y30.572 E0.30696
G1 X66.965 Y27.709 E0.39935
G1 X67.318 Y27.491 E0.40673
G1 X71.831 Y24.886 E0.49936
G1 X72.195 Y24.69 E0.50671
G1 X76.854 Y22.36 E0.5993
G1 X77.229 Y22.186 E0.60665
G1 X82.007 Y20.143 E0.69902
G1 X82.395 Y19.991 E0.70643
G1 X87.301 Y18.234 E0.79906
G1 X87.694 Y18.106 E0.80641
G1 X92.693 Y16.645 E0.89899
G1 X93.095 Y16.541 E0.90637
G1 X98.172 Y15.382 E0.99894
G1 X98.579 Y15.302 E1.00632
G1 X103.703 Y14.451 E1.09865
G1 X104.115 Y14.395 E1.10604
G1 X109.298 Y13.851 E1.19868
G1 X109.711 Y13.82 E1.20604
G1 X114.915 Y13.587 E1.29864
G1 X115.329 Y13.581 E1.306
G1 X120.537 Y13.659 E1.39859
G1 X120.951 Y13.677 E1.40595
G1 X126.129 Y14.065 E1.49825
G1 X126.541 Y14.109 E1.50562
G1 X131.701 Y14.808 E1.59818
G1 X132.109 Y14.875 E1.60553
G1 X137.226 Y15.882 E1.69824
G1 X137.633 Y15.975 E1.70566
G1 X142.659 Y17.283 E1.79798
G1 X143.055 Y17.399 E1.80531
G1 X148.017 Y19.011 E1.89805
G1 X148.409 Y19.152 E1.90546
G1 X153.244 Y21.051 E1.9978
G1 X153.624 Y21.213 E2.00514
G1 X158.352 Y23.403 E2.09776
G1 X158.725 Y23.589 E2.10517
G1 X163.312 Y26.059 E2.19778
G1 X163.668 Y26.265 E2.20509
G1 X168.086 Y28.994 E2.2974
G1 X168.433 Y29.223 E2.30479
G1 X172.7 Y32.227 E2.39755
G1 X173.032 Y32.476 E2.40493
G1 X177.092 Y35.714 E2.49724
G1 X177.408 Y35.982 E2.50461
G1 X181.285 Y39.473 E2.59735
G1 X181.584 Y39.759 E2.6047
G1 X185.237 Y43.466 E2.69721
G1 X185.521 Y43.772 E2.70464
G1 X188.945 Y47.693 E2.79717
G1 X189.208 Y48.012 E2.80452
G1 X192.384 Y52.12 E2.89682
G1 X192.627 Y52.455 E2.90418
G1 X195.567 Y56.767 E2.99695
G1 X195.79 Y57.117 E3.00433
G1 X198.459 Y61.585 E3.09684
G1 X198.661 Y61.946 E3.1042
G1 X201.054 Y66.556 E3.19653
G1 X201.234 Y66.93 E3.2039
G1 X203.351 Y71.684 E3.29641
G1 X203.509 Y72.069 E3.30381
G1 X205.342 Y76.956 E3.39659
G1 X205.476 Y77.349 E3.40397
G1 X207.009 Y82.323 E3.49649
G1 X207.118 Y82.721 E3.50383
G1 X208.349 Y87.766 E3.59614
G1 X208.435 Y88.17 E3.60348
G1 X209.365 Y93.29 E3.69598
G1 X209.428 Y93.702 E3.70339
G1 X210.049 Y98.87 E3.79592
G1 X210.085 Y99.281 E3.80325
G1 X210.398 Y104.484 E3.89591
G1 X210.411 Y104.9 E3.90331
G1 X210.411 Y110.099 E3.99572
G1 X210.399 Y110.514 E4.0031
G1 X210.087 Y115.711 E4.09565
G1 X210.049 Y116.123 E4.10301
G1 X209.428 Y121.289 E4.1955
G1 X209.367 Y121.698 E4.20285
G1 X208.436 Y126.833 E4.29562
G1 X208.349 Y127.241 E4.30303
G1 X207.117 Y132.285 E4.39533
G1 X207.007 Y132.683 E4.40267
G1 X205.473 Y137.657 E4.4952
G1 X205.339 Y138.049 E4.50256
G1 X203.505 Y142.937 E4.59537
G1 X203.348 Y143.322 E4.60276
G1 X201.232 Y148.073 E4.69521
G1 X201.052 Y148.446 E4.70257
G1 X198.659 Y153.057 E4.79492
G1 X198.457 Y153.42 E4.8023
G1 X195.786 Y157.89 E4.89486
G1 X195.563 Y158.239 E4.90223
G1 X192.624 Y162.549 E4.99496
G1 X192.381 Y162.884 E5.00231
G1 X189.205 Y166.992 E5.09462
G1 X188.941 Y167.312 E5.10199
G1 X185.517 Y171.232 E5.19451
G1 X185.234 Y171.537 E5.20191
G1 X181.581 Y175.244 E5.29442
G1 X181.282 Y175.531 E5.30179
G1 X177.404 Y179.022 E5.39454
G1 X177.088 Y179.289 E5.4019
G1 X173.027 Y182.528 E5.49423
G1 X172.694 Y182.778 E5.50163
G1 X168.429 Y185.779 E5.59434
G1 X168.083 Y186.007 E5.6017
G1 X163.664 Y188.737 E5.69404
G1 X163.308 Y188.943 E5.70135
G1 X158.719 Y191.414 E5.79399
G1 X158.345 Y191.6 E5.80142
G1 X153.618 Y193.789 E5.89402
G1 X153.239 Y193.951 E5.90135
G1 X148.403 Y195.85 E5.9937
G1 X148.01 Y195.991 E6.00112
G1 X143.048 Y197.602 E6.09386
G1 X142.652 Y197.718 E6.10119
G1 X137.626 Y199.025 E6.19351
G1 X137.221 Y199.117 E6.20089
G1 X132.104 Y200.125 E6.2936
G1 X131.694 Y200.193 E6.30099
G1 X126.534 Y200.891 E6.39355
G1 X126.123 Y200.935 E6.40089
G1 X120.944 Y201.323 E6.49321
G1 X120.53 Y201.341 E6.50058
G1 X115.323 Y201.419 E6.59315
G1 X114.908 Y201.413 E6.60053
G1 X109.704 Y201.179 E6.69313
G1 X109.292 Y201.148 E6.70047
G1 X104.109 Y200.604 E6.79311
G1 X103.697 Y200.548 E6.8005
G1 X98.573 Y199.697 E6.89283
G1 X98.164 Y199.617 E6.90024
G1 X93.087 Y198.457 E6.99282
G1 X92.687 Y198.353 E7.00016
G1 X87.688 Y196.892 E7.09274
G1 X87.294 Y196.764 E7.10011
G1 X82.388 Y195.006 E7.19274
G1 X82.001 Y194.854 E7.20014
G1 X77.223 Y192.811 E7.29251
G1 X76.848 Y192.637 E7.29986
G1 X72.19 Y190.307 E7.39244
G1 X71.826 Y190.111 E7.39979
G1 X67.313 Y187.506 E7.49241
G1 X66.959 Y187.287 E7.49981
G1 X62.621 Y184.423 E7.59222
G1 X62.282 Y184.184 E7.59959
G1 X58.117 Y181.061 E7.69213
G1 X57.794 Y180.804 E7.69947
G1 X53.824 Y177.44 E7.79196
G1 X53.513 Y177.161 E7.79939
G1 X49.752 Y173.563 E7.89191
G1 X49.463 Y173.269 E7.89924
G1 X45.916 Y169.447 E7.99193
G1 X45.644 Y169.135 E7.99929
G1 X42.343 Y165.122 E8.09166
G1 X42.088 Y164.792 E8.09907
G1 X39.029 Y160.58 E8.1916
G1 X38.796 Y160.238 E8.19896
G1 X35.989 Y155.843 E8.29166
G1 X35.776 Y155.488 E8.29902
G1 X33.247 Y150.952 E8.39134
G1 X33.056 Y150.583 E8.39872
G1 X30.794 Y145.884 E8.49143
G1 X30.626 Y145.508 E8.49875
G1 X28.655 Y140.702 E8.59108
G1 X28.508 Y140.31 E8.59853
G1 X26.823 Y135.373 E8.69126
G1 X26.702 Y134.978 E8.6986
G1 X25.318 Y129.961 E8.79111
G1 X25.219 Y129.558 E8.79849
G1 X24.14 Y124.477 E8.89082
G1 X24.066 Y124.07 E8.89818
G1 X23.288 Y118.91 E8.99094
G1 X23.239 Y118.499 E8.9983
G1 X22.773 Y113.324 E9.09066
G1 X22.748 Y112.91 E9.09803
G1 X22.592 Y107.712 E9.19047
G1 X22.592 Y107.296 E9.19787
G1 X22.749 Y102.08 E9.29063
G1 X22.774 Y101.666 E9.298
G1 X23.24 Y96.495 E9.39029
G1 X23.289 Y96.084 E9.39765
G1 X24.067 Y90.923 E9.49043
G1 X24.141 Y90.516 E9.49778
G1 X25.22 Y85.436 E9.5901
G1 X25.319 Y85.032 E9.59749
G1 X26.704 Y80.015 E9.69001
G1 X26.826 Y79.619 E9.69738
G1 X28.512 Y74.682 E9.79011
G1 X28.658 Y74.293 E9.7975
G1 X30.628 Y69.488 E9.88981
G1 X30.796 Y69.111 E9.89715
G1 X33.06 Y64.409 E9.98992
G1 X33.252 Y64.04 E9.99731
G1 X35.78 Y59.507 E10.08957
G1 X35.992 Y59.152 E10.09692
G1 X38.801 Y54.754 E10.18969
G1 X39.035 Y54.41 E10.19708
G1 X42.095 Y50.199 E10.28961
G1 X42.349 Y49.871 E10.29699
G1 X45.648 Y45.86 E10.38931
G1 X45.921 Y45.548 E10.39668
G1 X49.471 Y41.723 E10.48944
M204 S625
M205 X6 Y6
G0 F5000 X49.778 Y42.008
M204 S500
M205 X5 Y5
G1 F1200 X50.051 Y41.732 E10.49634
G1 X53.813 Y38.135 E10.58886
G1 X54.104 Y37.873 E10.59582
G1 X58.071 Y34.512 E10.68825
G1 X58.374 Y34.271 E10.69513
G1 X62.539 Y31.148 E10.78767
G1 X62.858 Y30.923 E10.79461
G1 X67.196 Y28.06 E10.887
G1 X67.528 Y27.855 E10.89393
G1 X72.041 Y25.25 E10.98656
G1 X72.383 Y25.066 E10.99347
G1 X77.042 Y22.736 E11.08606
G1 X77.395 Y22.572 E11.09298
G1 X82.173 Y20.529 E11.18536
G1 X82.537 Y20.386 E11.19231
G1 X87.443 Y18.629 E11.28494
G1 X87.812 Y18.509 E11.29184
G1 X92.811 Y17.048 E11.38442
G1 X93.188 Y16.95 E11.39134
G1 X98.265 Y15.791 E11.48391
G1 X98.647 Y15.716 E11.49083
G1 X103.771 Y14.865 E11.58316
G1 X104.158 Y14.813 E11.5901
G1 X109.341 Y14.269 E11.68274
G1 X109.73 Y14.24 E11.68968
G1 X114.934 Y14.007 E11.78228
G1 X115.322 Y14.001 E11.78917
G1 X120.53 Y14.079 E11.88176
G1 X120.919 Y14.096 E11.88868
G1 X126.097 Y14.484 E11.98099
G1 X126.485 Y14.525 E11.98792
G1 X131.645 Y15.224 E12.08048
G1 X132.028 Y15.288 E12.08739
G1 X137.145 Y16.295 E12.18009
G1 X137.528 Y16.382 E12.18707
G1 X142.554 Y17.69 E12.27939
G1 X142.925 Y17.799 E12.28626
G1 X147.887 Y19.411 E12.37901
G1 X148.256 Y19.543 E12.38597
G1 X153.091 Y21.442 E12.47831
G1 X153.447 Y21.594 E12.48519
G1 X158.175 Y23.784 E12.57781
G1 X158.525 Y23.959 E12.58477
G1 X163.112 Y26.429 E12.67738
G1 X163.447 Y26.622 E12.68425
G1 X167.865 Y29.351 E12.77656
G1 X168.192 Y29.567 E12.78353
G1 X172.459 Y32.571 E12.87629
G1 X172.77 Y32.804 E12.8832
G1 X176.83 Y36.042 E12.97551
G1 X177.127 Y36.294 E12.98243
G1 X181.004 Y39.785 E13.07517
G1 X181.285 Y40.054 E13.08209
G1 X184.938 Y43.761 E13.1746
G1 X185.205 Y44.048 E13.18157
G1 X188.629 Y47.969 E13.2741
G1 X188.875 Y48.269 E13.281
G1 X192.051 Y52.377 E13.3733
G1 X192.28 Y52.692 E13.38022
G1 X195.22 Y57.004 E13.47299
G1 X195.43 Y57.332 E13.47992
G1 X198.099 Y61.8 E13.57243
G1 X198.288 Y62.14 E13.57935
G1 X200.681 Y66.75 E13.67168
G1 X200.85 Y67.101 E13.6786
G1 X202.967 Y71.855 E13.77111
G1 X203.115 Y72.217 E13.77806
G1 X204.948 Y77.104 E13.87084
G1 X205.074 Y77.473 E13.87777
G1 X206.607 Y82.447 E13.9703
G1 X206.71 Y82.821 E13.97719
G1 X207.941 Y87.866 E14.0695
G1 X208.022 Y88.246 E14.07641
G1 X208.952 Y93.366 E14.16891
G1 X209.011 Y93.752 E14.17585
G1 X209.632 Y98.92 E14.26838
G1 X209.666 Y99.306 E14.27527
G1 X209.979 Y104.509 E14.36792
G1 X209.991 Y104.9 E14.37488
G1 X209.991 Y110.099 E14.46729
G1 X209.979 Y110.489 E14.47423
G1 X209.667 Y115.686 E14.56678
G1 X209.632 Y116.073 E14.57368
G1 X209.011 Y121.239 E14.66618
G1 X208.954 Y121.623 E14.67308
G1 X208.023 Y126.758 E14.76585
G1 X207.941 Y127.142 E14.77283
G1 X206.709 Y132.186 E14.86512
G1 X206.606 Y132.56 E14.87202
G1 X205.072 Y137.534 E14.96455
G1 X204.946 Y137.902 E14.97146
G1 X203.112 Y142.79 E15.06426
G1 X202.964 Y143.152 E15.07122
G1 X200.848 Y147.903 E15.16367
G1 X200.679 Y148.253 E15.17058
G1 X198.286 Y152.864 E15.26292
G1 X198.096 Y153.204 E15.26985
G1 X195.425 Y157.674 E15.36241
G1 X195.216 Y158.003 E15.36934
G1 X192.277 Y162.313 E15.46207
G1 X192.048 Y162.627 E15.46898
G1 X188.872 Y166.735 E15.56128
G1 X188.625 Y167.036 E15.5682
G1 X185.201 Y170.956 E15.66072
G1 X184.935 Y171.242 E15.66767
G1 X181.282 Y174.949 E15.76018
G1 X181.001 Y175.218 E15.76709
G1 X177.123 Y178.709 E15.85985
G1 X176.826 Y178.96 E15.86676
G1 X172.765 Y182.199 E15.9591
G1 X172.452 Y182.434 E15.96605
G1 X168.187 Y185.435 E16.05876
G1 X167.863 Y185.649 E16.06566
G1 X163.444 Y188.379 E16.15799
G1 X163.108 Y188.573 E16.16489
G1 X158.519 Y191.044 E16.25754
G1 X158.169 Y191.219 E16.26449
G1 X153.442 Y193.408 E16.35709
G1 X153.085 Y193.561 E16.364
G1 X148.249 Y195.46 E16.45635
G1 X147.88 Y195.592 E16.46332
G1 X142.918 Y197.203 E16.55605
G1 X142.546 Y197.311 E16.56294
G1 X137.52 Y198.618 E16.65525
G1 X137.14 Y198.705 E16.66218
G1 X132.023 Y199.713 E16.75489
G1 X131.638 Y199.777 E16.76183
G1 X126.478 Y200.475 E16.85439
G1 X126.091 Y200.516 E16.8613
G1 X120.912 Y200.904 E16.95362
G1 X120.524 Y200.921 E16.96053
G1 X115.317 Y200.999 E17.0531
G1 X114.927 Y200.993 E17.06003
G1 X109.723 Y200.759 E17.15263
G1 X109.335 Y200.73 E17.15955
G1 X104.152 Y200.186 E17.25219
G1 X103.765 Y200.134 E17.25913
G1 X98.641 Y199.283 E17.35146
G1 X98.258 Y199.207 E17.3584
G1 X93.181 Y198.047 E17.45097
G1 X92.805 Y197.95 E17.45788
G1 X87.806 Y196.489 E17.55046
G1 X87.436 Y196.368 E17.55738
G1 X82.53 Y194.61 E17.65002
G1 X82.167 Y194.468 E17.65694
G1 X77.389 Y192.425 E17.74932
G1 X77.036 Y192.261 E17.75624
G1 X72.378 Y189.931 E17.84882
G1 X72.036 Y189.747 E17.85572
G1 X67.523 Y187.142 E17.94835
G1 X67.19 Y186.937 E17.9553
G1 X62.852 Y184.073 E18.0477
G1 X62.534 Y183.848 E18.05463
G1 X58.369 Y180.725 E18.14717
G1 X58.065 Y180.484 E18.15406
G1 X54.095 Y177.12 E18.24656
G1 X53.804 Y176.857 E18.25353
G1 X50.043 Y173.259 E18.34605
G1 X49.771 Y172.983 E18.35294
G1 X46.224 Y169.161 E18.44563
G1 X45.968 Y168.869 E18.45253
G1 X42.667 Y164.856 E18.5449
G1 X42.428 Y164.546 E18.55186
G1 X39.369 Y160.334 E18.6444
G1 X39.15 Y160.012 E18.65132
G1 X36.343 Y155.617 E18.74402
G1 X36.143 Y155.283 E18.75094
G1 X33.614 Y150.747 E18.84326
G1 X33.434 Y150.401 E18.85019
G1 X31.172 Y145.702 E18.94289
G1 X31.015 Y145.348 E18.94978
G1 X29.044 Y140.542 E19.04211
G1 X28.906 Y140.175 E19.04908
G1 X27.221 Y135.238 E19.14181
G1 X27.106 Y134.866 E19.14873
G1 X25.722 Y129.849 E19.24125
G1 X25.63 Y129.47 E19.24818
G1 X24.551 Y124.389 E19.34051
G1 X24.482 Y124.008 E19.3474
G1 X23.704 Y118.848 E19.44016
G1 X23.657 Y118.461 E19.44709
G1 X23.191 Y113.286 E19.53945
G1 X23.168 Y112.897 E19.54638
G1 X23.012 Y107.699 E19.63882
G1 X23.012 Y107.308 E19.64577
G1 X23.169 Y102.092 E19.73853
G1 X23.192 Y101.704 E19.74544
G1 X23.658 Y96.533 E19.83773
G1 X23.705 Y96.147 E19.84464
G1 X24.483 Y90.986 E19.93742
G1 X24.552 Y90.603 E19.94434
G1 X25.631 Y85.523 E20.03666
G1 X25.724 Y85.144 E20.04359
G1 X27.109 Y80.127 E20.13611
G1 X27.223 Y79.755 E20.14303
G1 X28.909 Y74.818 E20.23576
G1 X29.047 Y74.452 E20.24272
G1 X31.017 Y69.647 E20.33503
G1 X31.175 Y69.293 E20.34192
G1 X33.439 Y64.591 E20.43469
G1 X33.618 Y64.244 E20.44163
G1 X36.146 Y59.711 E20.53389
G1 X36.346 Y59.378 E20.5408
G1 X39.155 Y54.98 E20.63356
G1 X39.375 Y54.657 E20.64051
G1 X42.435 Y50.446 E20.73304
G1 X42.673 Y50.138 E20.73996
G1 X45.972 Y46.127 E20.83228
G1 X46.228 Y45.833 E20.83921
G1 X49.778 Y42.008 E20.93197
M204 S625
M205 X6 Y6
G0 F5000 X50.086 Y42.294
M204 S500
M205 X5 Y5
G1 F1200 X50.341 Y42.035 E20.93843
G1 X54.103 Y38.438 E21.03095
G1 X54.375 Y38.193 E21.03746
G1 X58.342 Y34.832 E21.12988
G1 X58.626 Y34.607 E21.13632
G1 X62.791 Y31.484 E21.22886
G1 X63.089 Y31.273 E21.23535
G1 X67.427 Y28.41 E21.32775
G1 X67.738 Y28.219 E21.33423
G1 X72.251 Y25.614 E21.42686
G1 X72.571 Y25.441 E21.43333
G1 X77.23 Y23.111 E21.52593
G1 X77.56 Y22.958 E21.53239
G1 X82.338 Y20.915 E21.62476
G1 X82.679 Y20.782 E21.63127
G1 X87.585 Y19.025 E21.7239
G1 X87.93 Y18.913 E21.73035
G1 X92.929 Y17.452 E21.82293
G1 X93.282 Y17.36 E21.82941
G1 X98.359 Y16.201 E21.92199
G1 X98.716 Y16.13 E21.92846
G1 X103.84 Y15.279 E22.02079
G1 X104.202 Y15.23 E22.02728
G1 X109.385 Y14.686 E22.11992
G1 X109.749 Y14.659 E22.12641
G1 X114.953 Y14.426 E22.21901
G1 X115.316 Y14.421 E22.22546
G1 X120.524 Y14.499 E22.31805
G1 X120.888 Y14.515 E22.32452
G1 X126.066 Y14.903 E22.41683
G1 X126.429 Y14.941 E22.42331
G1 X131.589 Y15.64 E22.51588
G1 X131.947 Y15.7 E22.52233
G1 X137.064 Y16.707 E22.61503
G1 X137.422 Y16.788 E22.62156
G1 X142.448 Y18.096 E22.71388
G1 X142.796 Y18.198 E22.72032
G1 X147.758 Y19.81 E22.81306
G1 X148.102 Y19.934 E22.81956
G1 X152.937 Y21.833 E22.9119
G1 X153.271 Y21.975 E22.91835
G1 X157.999 Y24.165 E23.01098
G1 X158.326 Y24.329 E23.01748
G1 X162.913 Y26.799 E23.11009
G1 X163.226 Y26.98 E23.11652
G1 X167.644 Y29.709 E23.20882
G1 X167.95 Y29.91 E23.21533
G1 X172.217 Y32.914 E23.30809
G1 X172.508 Y33.133 E23.31457
G1 X176.568 Y36.371 E23.40688
G1 X176.846 Y36.606 E23.41335
G1 X180.723 Y40.097 E23.50609
G1 X180.986 Y40.348 E23.51255
G1 X184.639 Y44.055 E23.60507
G1 X184.888 Y44.324 E23.61158
G1 X188.312 Y48.245 E23.70412
G1 X188.543 Y48.526 E23.71058
G1 X191.719 Y52.634 E23.80289
G1 X191.933 Y52.928 E23.80935
G1 X194.873 Y57.24 E23.90212
G1 X195.069 Y57.548 E23.90861
G1 X197.738 Y62.016 E24.00113
G1 X197.915 Y62.333 E24.00758
G1 X200.308 Y66.943 E24.09991
G1 X200.466 Y67.272 E24.1064
G1 X202.583 Y72.026 E24.1989
G1 X202.722 Y72.364 E24.2054
G1 X204.555 Y77.251 E24.29818
G1 X204.673 Y77.596 E24.30466
G1 X206.206 Y82.57 E24.39718
